Newaita-dark/apps/32/com.github.tkashkin.boiler.svg

<svg height="32" viewBox="0 0 32 32" width="32" xmlns="http://www.w3.org/2000/svg" xmlns:xlink="http://www.w3.org/1999/xlink"><linearGradient id="a"><stop offset="0" stop-opacity=".313726"/><stop offset=".222222" stop-opacity=".27451"/><stop offset="1" stop-opacity="0"/></linearGradient><radialGradient id="b" cx="450.908936" cy="189.579361" gradientTransform="matrix(.00000017 -.0781325 -.140638 -.0000001 44.523152 63.595329)" gradientUnits="userSpaceOnUse" r="21.166656" xlink:href="#a"/><radialGradient id="c" cx="450.908936" cy="189.579361" gradientTransform="matrix(-.00000017 .0781325 .140638 .0000001 -12.770119 -7.527482)" gradientUnits="userSpaceOnUse" r="21.166656" xlink:href="#a"/><radialGradient id="d" cx="450.908936" cy="189.579361" gradientTransform="matrix(-.00000017 -.0781325 .140638 -.0000001 -12.770119 63.595329)" gradientUnits="userSpaceOnUse" r="21.166656" xlink:href="#a"/><radialGradient id="e" cx="450.908936" cy="189.579361" gradientTransform="matrix(.00000017 .0781325 -.140638 .0000001 44.52315 -7.527483)" gradientUnits="userSpaceOnUse" r="21.166656" xlink:href="#a"/><linearGradient id="f" gradientTransform="matrix(.0133601 0 0 .062506 12.465386 13.438784)" gradientUnits="userSpaceOnUse" x1="255.323059" x2="255.323044" y1="233.5" y2="254.666656"><stop offset="0" stop-opacity=".27451"/><stop offset="1" stop-opacity="0"/></linearGradient><linearGradient id="g" gradientUnits="userSpaceOnUse" x1="18.52261200006" x2="18.52261200006" y1="28.033934" y2="2.89610399997"><stop offset="0" stop-color="#ab47bc"/><stop offset="1" stop-color="#ba68c8"/></linearGradient><linearGradient id="h" gradientUnits="userSpaceOnUse" x1="15.876524" x2="15.876524" y1="28.033934" y2="2.89610500006"><stop offset="0" stop-color="#bdbdbd"/><stop offset="1" stop-color="#e0e0e0"/></linearGradient><path d="m18.191406 28.035156h2.648438v-1.324218h-2.648438zm0 0" fill="url(#b)"/><path d="m13.5625 28.035156h-2.648438v1.320313h2.648438zm0 0" fill="url(#c)"/><path d="m13.5625 28.035156h-2.648438v-1.324218h2.648438zm0 0" fill="url(#d)"/><path d="m18.191406 28.035156h2.648438v1.320313h-2.648438zm0 0" fill="url(#e)"/><path d="m13.5625 27.703125h4.628906v1.652344h-4.628906zm0 0" fill="url(#f)"/><path d="m15.875 2.894531c6.941406 0 12.570312 5.628907 12.570312 12.570313s-5.628906 12.570312-12.570312 12.570312-12.566406-5.628906-12.566406-12.570312 5.625-12.570313 12.566406-12.570313zm0 0" fill="url(#g)"/><path d="m15.875 28.035156c-6.960938 0-12.566406-5.605468-12.566406-12.570312 0-.039063 0-.082032 0-.121094.066406 6.902344 5.644531 12.445312 12.566406 12.445312s12.503906-5.542968 12.570312-12.445312v.121094c0 6.964844-5.605468 12.570312-12.570312 12.570312zm0 0" fill-opacity=".196078"/><path d="m15.875 2.894531c-6.960938 0-12.566406 5.605469-12.566406 12.570313v.125c.066406-6.90625 5.644531-12.449219 12.566406-12.449219s12.503906 5.542969 12.570312 12.449219c0-.042969 0-.082032 0-.125 0-6.964844-5.605468-12.570313-12.570312-12.570313zm0 0" fill="#fff" fill-opacity=".392157"/><path d="m15.875 2.800781c-7.011719 0-12.660156 5.652344-12.660156 12.664063 0 7.011718 5.648437 12.664062 12.660156 12.664062 7.015625 0 12.664062-5.652344 12.664062-12.664062 0-7.011719-5.648437-12.664063-12.664062-12.664063zm0 .1875c6.914062 0 12.476562 5.5625 12.476562 12.476563 0 6.914062-5.5625 12.476562-12.476562 12.476562-6.910156 0-12.472656-5.5625-12.472656-12.476562 0-6.914063 5.5625-12.476563 12.472656-12.476563zm0 0" fill="#212121"/><path d="m21.289062 13.117188c-.019531 1.019531.09375 2.125-.414062 3.050781-.34375.578125-.898438 1-1.484375 1.308593.078125 1.296876.105469 3.148438-.640625 3.988282-.394531.449218-.890625.699218-1.765625.753906-1.339844.066406-2.710937.132812-4.023437-.183594-.628907-.183594-1.433594-.359375-1.640626-1.082031-.308593-.617187-.148437-1.316406-.203124-1.980469-.046876-2.761718.367187-5.507812.828124-8.226562-.183593-.183594-1.078124.089844-1.078124-.574219 0-.660156 1.539062-1.378906 2.339843-1.425781 1.269531-.277344 2.59375-.167969 3.867188.011718.726562.28125 1.5.109376 2.238281.257813 2.019531.71875 1.964844 2.289063 1.976562 4.101563zm-1.445312 1.082031c-.042969-1.050781.105469-1.988281-.3125-2.894531-.390625-.582032-1.054688-.800782-.777344.386718.21875 1.421875.328125 2.859375.460938 4.292969.621094-.355469.578125-1.171875.628906-1.785156zm0 0" fill="url(#h)"/><path d="m14.894531 8.578125c-.566406 0-1.128906.046875-1.6875.167969-.800781.046875-2.339843.765625-2.339843 1.425781 0 .089844.019531.164063.046874.222656.261719-.597656 1.574219-1.179687 2.292969-1.226562 1.269531-.273438 2.59375-.167969 3.867188.011719.726562.285156 1.5.109374 2.238281.257812 1.910156.683594 1.964844 2.125 1.976562 3.816406 0-.046875 0-.09375 0-.136718-.011718-1.8125.042969-3.382813-1.976562-4.101563-.738281-.148437-1.511719.023437-2.238281-.257813-.71875-.101562-1.449219-.179687-2.179688-.179687zm-3.015625 2.554687c-.421875 2.515626-.785156 5.058594-.765625 7.617188.019531-2.546875.40625-5.074219.832031-7.578125-.015624-.019531-.039062-.03125-.066406-.039063zm6.832032.320313c-.035157.136719-.027344.351563.042968.664063.21875 1.421874.328125 2.855468.460938 4.289062.621094-.351562.578125-1.167969.628906-1.78125-.003906-.105469-.003906-.210938-.007812-.316406-.039063.601562-.035157 1.339844-.621094 1.675781-.132813-1.433594-.242188-2.871094-.460938-4.292969-.019531-.085937-.035156-.167968-.042968-.238281zm1.125 2.015625v.320312c0-.109374 0-.214843 0-.320312zm1.453124.289062v.234376c0-.078126 0-.15625 0-.234376zm-1.875 4.132813c-.007812.003906-.015624.007813-.023437.011719.019531.28125.03125.585937.035156.902344.007813-.3125 0-.621094-.011719-.914063zm-8.285156 1.679687c-.003906.164063-.007812.332032-.003906.496094.003906-.167968.007812-.332031.003906-.496094zm0 0" fill="#fff"/><path d="m10.933594 10.402344c-.042969.082031-.066406.164062-.066406.246094 0 .59375.71875.433593 1 .527343.027343-.152343.050781-.304687.078124-.457031-.152343-.15625-.800781.007812-1.011718-.316406zm7.992187.402344c-.179687-.007813-.292969.179687-.207031.667968.109375-.34375.53125-.113281.8125.308594.257812.554688.300781 1.125.304688 1.726562 0-.789062.023437-1.519531-.304688-2.230468-.183594-.273438-.425781-.46875-.605469-.472656zm2.363281 2.445312c-.003906.175781 0 .351562 0 .53125 0-.0625 0-.128906 0-.191406 0-.113282 0-.226563 0-.339844zm-1.453124.539062v.507813c.003906-.042969.007812-.085937.007812-.125-.003906-.128906-.007812-.257813-.007812-.382813zm1.453124.191407c-.007812.746093-.054687 1.5-.414062 2.160156-.34375.578125-.898438 1-1.484375 1.308594.011719.15625.019531.320312.023437.488281.578126-.308594 1.121094-.722656 1.460938-1.292969.441406-.8125.414062-1.757812.414062-2.664062zm-10.175781 4.773437c0 .230469 0 .460938.003907.695313.003906.046875.007812.097656.007812.144531.003906-.214844.011719-.433594-.007812-.648438 0-.066406 0-.128906-.003907-.191406zm8.3125.058594c-.019531 1.015625-.167969 2.050781-.675781 2.621094-.449219.523437-1.097656.820312-1.765625.757812-1.339844.066406-2.710937.132813-4.023437-.183594-.628907-.183593-1.433594-.359374-1.640626-1.082031-.136718-.273437-.183593-.566406-.195312-.863281-.007812.46875-.019531.9375.195312 1.367188.207032.71875 1.011719.894531 1.640626 1.082031 1.3125.316406 2.683593.25 4.023437.183593.710937-.035156 1.316406-.25 1.765625-.757812.59375-.664062.695312-1.96875.675781-3.125zm0 0" fill-opacity=".235294"/><path d="m340.592475-5.14504c-.31247 16.310942 1.499857 33.996753-6.624367 48.807839-5.499475 9.249117-14.373628 15.998472-23.747733 20.935501 1.249881 20.748018 1.687339 50.37019-10.249021 63.806406-6.311897 7.186814-14.248639 11.186432-28.247302 12.061349-21.435453 1.062398-43.370859 2.124797-64.368853-2.93722-10.06154-2.937219-22.93531-5.749451-26.247494-17.310847-4.937028-9.874057-2.374773-21.060489-3.24969-31.684474-.749928-44.183281 5.874439-88.116585 13.248735-131.612432-2.937219-2.937219-17.248353 1.437363-17.248353-9.186622 0-10.561492 24.622649-22.060394 37.433926-22.810322 20.31056-4.437076 41.496037-2.687243 61.869091.187482 11.62389 4.49957 23.997709 1.749833 35.809081 4.124606 32.309414 11.498902 31.434498 36.621503 31.62198 65.618734zm-23.122792 17.310847c-.687434-16.810895 1.687339-31.809463-4.999522-46.308078-6.249404-9.311611-16.873389-12.811277-12.436313 6.186909 3.499666 22.747828 5.249499 45.745632 7.374296 68.680941 9.936551-5.686956 9.249117-18.748209 10.061539-28.559772zm0 0" fill="none" stroke="#212121" stroke-width="3" transform="matrix(.062506 0 0 .062506 0 13.438783)"/></svg>

<?xml version="1.0" encoding="UTF-8"?>
<svg xmlns="http://www.w3.org/2000/svg" xmlns:xlink="http://www.w3.org/1999/xlink" width="32px" height="32px" viewBox="0 0 32 32" version="1.1">
<defs>
<radialGradient id="radial0" gradientUnits="userSpaceOnUse" cx="450.908936" cy="189.579361" fx="450.908936" fy="189.579361" r="21.166656" gradientTransform="matrix(0.00000017417,-0.0781325,-0.140638,-0.000000101539,44.523152,63.595329)">
<stop offset="0" style="stop-color:rgb(0%,0%,0%);stop-opacity:0.313726;"/>
<stop offset="0.222222" style="stop-color:rgb(0%,0%,0%);stop-opacity:0.27451;"/>
<stop offset="1" style="stop-color:rgb(0%,0%,0%);stop-opacity:0;"/>
</radialGradient>
<radialGradient id="radial1" gradientUnits="userSpaceOnUse" cx="450.908936" cy="189.579361" fx="450.908936" fy="189.579361" r="21.166656" gradientTransform="matrix(-0.00000017417,0.0781325,0.140638,0.000000101539,-12.770119,-7.527482)">
<stop offset="0" style="stop-color:rgb(0%,0%,0%);stop-opacity:0.313726;"/>
<stop offset="0.222222" style="stop-color:rgb(0%,0%,0%);stop-opacity:0.27451;"/>
<stop offset="1" style="stop-color:rgb(0%,0%,0%);stop-opacity:0;"/>
</radialGradient>
<radialGradient id="radial2" gradientUnits="userSpaceOnUse" cx="450.908936" cy="189.579361" fx="450.908936" fy="189.579361" r="21.166656" gradientTransform="matrix(-0.00000017417,-0.0781325,0.140638,-0.000000101539,-12.770119,63.595329)">
<stop offset="0" style="stop-color:rgb(0%,0%,0%);stop-opacity:0.313726;"/>
<stop offset="0.222222" style="stop-color:rgb(0%,0%,0%);stop-opacity:0.27451;"/>
<stop offset="1" style="stop-color:rgb(0%,0%,0%);stop-opacity:0;"/>
</radialGradient>
<radialGradient id="radial3" gradientUnits="userSpaceOnUse" cx="450.908936" cy="189.579361" fx="450.908936" fy="189.579361" r="21.166656" gradientTransform="matrix(0.00000017417,0.0781325,-0.140638,0.000000101539,44.52315,-7.527483)">
<stop offset="0" style="stop-color:rgb(0%,0%,0%);stop-opacity:0.313726;"/>
<stop offset="0.222222" style="stop-color:rgb(0%,0%,0%);stop-opacity:0.27451;"/>
<stop offset="1" style="stop-color:rgb(0%,0%,0%);stop-opacity:0;"/>
</radialGradient>
<linearGradient id="linear0" gradientUnits="userSpaceOnUse" x1="255.323059" y1="233.5" x2="255.323044" y2="254.666656" gradientTransform="matrix(0.0133601,0,0,0.062506,12.465386,13.438784)">
<stop offset="0" style="stop-color:rgb(0%,0%,0%);stop-opacity:0.27451;"/>
<stop offset="1" style="stop-color:rgb(0%,0%,0%);stop-opacity:0;"/>
</linearGradient>
<linearGradient id="linear1" gradientUnits="userSpaceOnUse" x1="296.333344" y1="233.5" x2="296.333344" y2="-168.666672" gradientTransform="matrix(0.062506,0,0,0.062506,0,13.438783)">
<stop offset="0" style="stop-color:rgb(67.058825%,27.843139%,73.725492%);stop-opacity:1;"/>
<stop offset="1" style="stop-color:rgb(72.941178%,40.784314%,78.431374%);stop-opacity:1;"/>
</linearGradient>
<linearGradient id="linear2" gradientUnits="userSpaceOnUse" x1="254" y1="233.5" x2="254" y2="-168.666656" gradientTransform="matrix(0.062506,0,0,0.062506,0,13.438783)">
<stop offset="0" style="stop-color:rgb(74.117649%,74.117649%,74.117649%);stop-opacity:1;"/>
<stop offset="1" style="stop-color:rgb(87.843138%,87.843138%,87.843138%);stop-opacity:1;"/>
</linearGradient>
</defs>
<g id="surface1">
<path style=" stroke:none;fill-rule:nonzero;fill:url(#radial0);" d="M 18.191406 28.035156 L 20.839844 28.035156 L 20.839844 26.710938 L 18.191406 26.710938 Z M 18.191406 28.035156 "/>
<path style=" stroke:none;fill-rule:nonzero;fill:url(#radial1);" d="M 13.5625 28.035156 L 10.914062 28.035156 L 10.914062 29.355469 L 13.5625 29.355469 Z M 13.5625 28.035156 "/>
<path style=" stroke:none;fill-rule:nonzero;fill:url(#radial2);" d="M 13.5625 28.035156 L 10.914062 28.035156 L 10.914062 26.710938 L 13.5625 26.710938 Z M 13.5625 28.035156 "/>
<path style=" stroke:none;fill-rule:nonzero;fill:url(#radial3);" d="M 18.191406 28.035156 L 20.839844 28.035156 L 20.839844 29.355469 L 18.191406 29.355469 Z M 18.191406 28.035156 "/>
<path style=" stroke:none;fill-rule:nonzero;fill:url(#linear0);" d="M 13.5625 27.703125 L 18.191406 27.703125 L 18.191406 29.355469 L 13.5625 29.355469 Z M 13.5625 27.703125 "/>
<path style=" stroke:none;fill-rule:nonzero;fill:url(#linear1);" d="M 15.875 2.894531 C 22.816406 2.894531 28.445312 8.523438 28.445312 15.464844 C 28.445312 22.40625 22.816406 28.035156 15.875 28.035156 C 8.933594 28.035156 3.308594 22.40625 3.308594 15.464844 C 3.308594 8.523438 8.933594 2.894531 15.875 2.894531 Z M 15.875 2.894531 "/>
<path style=" stroke:none;fill-rule:nonzero;fill:rgb(0%,0%,0%);fill-opacity:0.196078;" d="M 15.875 28.035156 C 8.914062 28.035156 3.308594 22.429688 3.308594 15.464844 C 3.308594 15.425781 3.308594 15.382812 3.308594 15.34375 C 3.375 22.246094 8.953125 27.789062 15.875 27.789062 C 22.796875 27.789062 28.378906 22.246094 28.445312 15.34375 C 28.445312 15.382812 28.445312 15.425781 28.445312 15.464844 C 28.445312 22.429688 22.839844 28.035156 15.875 28.035156 Z M 15.875 28.035156 "/>
<path style=" stroke:none;fill-rule:nonzero;fill:rgb(100%,100%,100%);fill-opacity:0.392157;" d="M 15.875 2.894531 C 8.914062 2.894531 3.308594 8.5 3.308594 15.464844 C 3.308594 15.507812 3.308594 15.546875 3.308594 15.589844 C 3.375 8.683594 8.953125 3.140625 15.875 3.140625 C 22.796875 3.140625 28.378906 8.683594 28.445312 15.589844 C 28.445312 15.546875 28.445312 15.507812 28.445312 15.464844 C 28.445312 8.5 22.839844 2.894531 15.875 2.894531 Z M 15.875 2.894531 "/>
<path style=" stroke:none;fill-rule:nonzero;fill:rgb(12.941177%,12.941177%,12.941177%);fill-opacity:1;" d="M 15.875 2.800781 C 8.863281 2.800781 3.214844 8.453125 3.214844 15.464844 C 3.214844 22.476562 8.863281 28.128906 15.875 28.128906 C 22.890625 28.128906 28.539062 22.476562 28.539062 15.464844 C 28.539062 8.453125 22.890625 2.800781 15.875 2.800781 Z M 15.875 2.988281 C 22.789062 2.988281 28.351562 8.550781 28.351562 15.464844 C 28.351562 22.378906 22.789062 27.941406 15.875 27.941406 C 8.964844 27.941406 3.402344 22.378906 3.402344 15.464844 C 3.402344 8.550781 8.964844 2.988281 15.875 2.988281 Z M 15.875 2.988281 "/>
<path style=" stroke:none;fill-rule:nonzero;fill:url(#linear2);" d="M 21.289062 13.117188 C 21.269531 14.136719 21.382812 15.242188 20.875 16.167969 C 20.53125 16.746094 19.976562 17.167969 19.390625 17.476562 C 19.46875 18.773438 19.496094 20.625 18.75 21.464844 C 18.355469 21.914062 17.859375 22.164062 16.984375 22.21875 C 15.644531 22.285156 14.273438 22.351562 12.960938 22.035156 C 12.332031 21.851562 11.527344 21.675781 11.320312 20.953125 C 11.011719 20.335938 11.171875 19.636719 11.117188 18.972656 C 11.070312 16.210938 11.484375 13.464844 11.945312 10.746094 C 11.761719 10.5625 10.867188 10.835938 10.867188 10.171875 C 10.867188 9.511719 12.40625 8.792969 13.207031 8.746094 C 14.476562 8.46875 15.800781 8.578125 17.074219 8.757812 C 17.800781 9.039062 18.574219 8.867188 19.3125 9.015625 C 21.332031 9.734375 21.277344 11.304688 21.289062 13.117188 Z M 19.84375 14.199219 C 19.800781 13.148438 19.949219 12.210938 19.53125 11.304688 C 19.140625 10.722656 18.476562 10.503906 18.753906 11.691406 C 18.972656 13.113281 19.082031 14.550781 19.214844 15.984375 C 19.835938 15.628906 19.792969 14.8125 19.84375 14.199219 Z M 19.84375 14.199219 "/>
<path style=" stroke:none;fill-rule:nonzero;fill:rgb(100%,100%,100%);fill-opacity:1;" d="M 14.894531 8.578125 C 14.328125 8.578125 13.765625 8.625 13.207031 8.746094 C 12.40625 8.792969 10.867188 9.511719 10.867188 10.171875 C 10.867188 10.261719 10.886719 10.335938 10.914062 10.394531 C 11.175781 9.796875 12.488281 9.214844 13.207031 9.167969 C 14.476562 8.894531 15.800781 9 17.074219 9.179688 C 17.800781 9.464844 18.574219 9.289062 19.3125 9.4375 C 21.222656 10.121094 21.277344 11.5625 21.289062 13.253906 C 21.289062 13.207031 21.289062 13.160156 21.289062 13.117188 C 21.277344 11.304688 21.332031 9.734375 19.3125 9.015625 C 18.574219 8.867188 17.800781 9.039062 17.074219 8.757812 C 16.355469 8.65625 15.625 8.578125 14.894531 8.578125 Z M 11.878906 11.132812 C 11.457031 13.648438 11.09375 16.191406 11.113281 18.75 C 11.132812 16.203125 11.519531 13.675781 11.945312 11.171875 C 11.929688 11.152344 11.90625 11.140625 11.878906 11.132812 Z M 18.710938 11.453125 C 18.675781 11.589844 18.683594 11.804688 18.753906 12.117188 C 18.972656 13.539062 19.082031 14.972656 19.214844 16.40625 C 19.835938 16.054688 19.792969 15.238281 19.84375 14.625 C 19.839844 14.519531 19.839844 14.414062 19.835938 14.308594 C 19.796875 14.910156 19.800781 15.648438 19.214844 15.984375 C 19.082031 14.550781 18.972656 13.113281 18.753906 11.691406 C 18.734375 11.605469 18.71875 11.523438 18.710938 11.453125 Z M 19.835938 13.46875 C 19.835938 13.574219 19.835938 13.679688 19.835938 13.789062 C 19.835938 13.679688 19.835938 13.574219 19.835938 13.46875 Z M 21.289062 13.757812 C 21.289062 13.835938 21.289062 13.914062 21.289062 13.992188 C 21.289062 13.914062 21.289062 13.835938 21.289062 13.757812 Z M 19.414062 17.890625 C 19.40625 17.894531 19.398438 17.898438 19.390625 17.902344 C 19.410156 18.183594 19.421875 18.488281 19.425781 18.804688 C 19.433594 18.492188 19.425781 18.183594 19.414062 17.890625 Z M 11.128906 19.570312 C 11.125 19.734375 11.121094 19.902344 11.125 20.066406 C 11.128906 19.898438 11.132812 19.734375 11.128906 19.570312 Z M 11.128906 19.570312 "/>
<path style=" stroke:none;fill-rule:nonzero;fill:rgb(0%,0%,0%);fill-opacity:0.235294;" d="M 10.933594 10.402344 C 10.890625 10.484375 10.867188 10.566406 10.867188 10.648438 C 10.867188 11.242188 11.585938 11.082031 11.867188 11.175781 C 11.894531 11.023438 11.917969 10.871094 11.945312 10.71875 C 11.792969 10.5625 11.144531 10.726562 10.933594 10.402344 Z M 18.925781 10.804688 C 18.746094 10.796875 18.632812 10.984375 18.71875 11.472656 C 18.828125 11.128906 19.25 11.359375 19.53125 11.78125 C 19.789062 12.335938 19.832031 12.90625 19.835938 13.507812 C 19.835938 12.71875 19.859375 11.988281 19.53125 11.277344 C 19.347656 11.003906 19.105469 10.808594 18.925781 10.804688 Z M 21.289062 13.25 C 21.285156 13.425781 21.289062 13.601562 21.289062 13.78125 C 21.289062 13.71875 21.289062 13.652344 21.289062 13.589844 C 21.289062 13.476562 21.289062 13.363281 21.289062 13.25 Z M 19.835938 13.789062 C 19.835938 13.953125 19.835938 14.125 19.835938 14.296875 C 19.839844 14.253906 19.84375 14.210938 19.84375 14.171875 C 19.839844 14.042969 19.835938 13.914062 19.835938 13.789062 Z M 21.289062 13.980469 C 21.28125 14.726562 21.234375 15.480469 20.875 16.140625 C 20.53125 16.71875 19.976562 17.140625 19.390625 17.449219 C 19.402344 17.605469 19.410156 17.769531 19.414062 17.9375 C 19.992188 17.628906 20.535156 17.214844 20.875 16.644531 C 21.316406 15.832031 21.289062 14.886719 21.289062 13.980469 Z M 11.113281 18.753906 C 11.113281 18.984375 11.113281 19.214844 11.117188 19.449219 C 11.121094 19.496094 11.125 19.546875 11.125 19.59375 C 11.128906 19.378906 11.136719 19.160156 11.117188 18.945312 C 11.117188 18.878906 11.117188 18.816406 11.113281 18.753906 Z M 19.425781 18.8125 C 19.40625 19.828125 19.257812 20.863281 18.75 21.433594 C 18.300781 21.957031 17.652344 22.253906 16.984375 22.191406 C 15.644531 22.257812 14.273438 22.324219 12.960938 22.007812 C 12.332031 21.824219 11.527344 21.648438 11.320312 20.925781 C 11.183594 20.652344 11.136719 20.359375 11.125 20.0625 C 11.117188 20.53125 11.105469 21 11.320312 21.429688 C 11.527344 22.148438 12.332031 22.324219 12.960938 22.511719 C 14.273438 22.828125 15.644531 22.761719 16.984375 22.695312 C 17.695312 22.660156 18.300781 22.445312 18.75 21.9375 C 19.34375 21.273438 19.445312 19.96875 19.425781 18.8125 Z M 19.425781 18.8125 "/>
<path style="fill:none;stroke-width:3;stroke-linecap:butt;stroke-linejoin:miter;stroke:rgb(12.941177%,12.941177%,12.941177%);stroke-opacity:1;stroke-miterlimit:4;" d="M 340.592475 -5.14504 C 340.280005 11.165902 342.092332 28.851713 333.968108 43.662799 C 328.468633 52.911916 319.59448 59.661271 310.220375 64.5983 C 311.470256 85.346318 311.907714 114.96849 299.971354 128.404706 C 293.659457 135.59152 285.722715 139.591138 271.724052 140.466055 C 250.288599 141.528453 228.353193 142.590852 207.355199 137.528835 C 197.293659 134.591616 184.419889 131.779384 181.107705 120.217988 C 176.170677 110.343931 178.732932 99.157499 177.858015 88.533514 C 177.108087 44.350233 183.732454 0.416929 191.10675 -43.078918 C 188.169531 -46.016137 173.858397 -41.641555 173.858397 -52.26554 C 173.858397 -62.827032 198.481046 -74.325934 211.292323 -75.075862 C 231.602883 -79.512938 252.78836 -77.763105 273.161414 -74.88838 C 284.785304 -70.38881 297.159123 -73.138547 308.970495 -70.763774 C 341.279909 -59.264872 340.404993 -34.142271 340.592475 -5.14504 Z M 317.469683 12.165807 C 316.782249 -4.645088 319.157022 -19.643656 312.470161 -34.142271 C 306.220757 -43.453882 295.596772 -46.953548 300.033848 -27.955362 C 303.533514 -5.207534 305.283347 17.79027 307.408144 40.725579 C 317.344695 35.038623 316.657261 21.97737 317.469683 12.165807 Z M 317.469683 12.165807 " transform="matrix(0.062506,0,0,0.062506,0,13.438783)"/>
</g>
</svg>
